!!!OTL: ICH NEHM MEIN GLAESCHEN IN DIE HAND
!!!ARE: Europa, Mitteleuropa, Deutschland
!!!SCT: F0528A
!!!YEM: Copyright 1995, estate of Helmut Schaffrath.
**kern
*ICvox
*Ivox
*M2/4
*k[]
*C:
{8G
=1
8c
8c
8c
8c
=2
8B
8A
4G}
=3
{8A
8A
8B
8B
=4
4c
8C}
{8G
=5
8c
8c
8c
8c
=6
8B
8A
4G}
=7
{8A
8A
8B
8B
=8
4c
8C
8r}
=9
{8e
8e
8e
8e
=10
8f
8f
4f}
=11
{8d
8d
8d
8d
=12
8g
8g
4g}
=13
{8e
8c
8d
8B
=14
4c
4C}
=15
{8e
8e
8e
8e
=16
8f
8f
4f}
=17
{8d
8d
8d
8d
=18
8g
8g
4g}
=19
{8e
8c
8d
8B
=20
4c
8C}
==
!!!AGN: Studenten -, Trink - Lied
!!!ONB: ESAC (Essen Associative Code) Database: FINK
!!!AMT: simple duple
!!!AIN: vox
!!!EED: Helmut Schaffrath
!!!EEV: 1.0
*-
